germany/municipalities/07137066.svg

<?xml version="1.0" encoding="UTF-8" standalone="no"?>
<!-- Created with Inkscape (http://www.inkscape.org/) -->
<svg
   xmlns:dc="http://purl.org/dc/elements/1.1/"
   xmlns:cc="http://web.resource.org/cc/"
   xmlns:rdf="http://www.w3.org/1999/02/22-rdf-syntax-ns#"
   xmlns:svg="http://www.w3.org/2000/svg"
   xmlns="http://www.w3.org/2000/svg"
   xmlns:sodipodi="http://sodipodi.sourceforge.net/DTD/sodipodi-0.dtd"
   xmlns:inkscape="http://www.inkscape.org/namespaces/inkscape"
   width="210mm"
   height="297mm"
   id="svg2"
   sodipodi:version="0.32"
   inkscape:version="0.45"
   sodipodi:modified="true">
  <defs
     id="defs4" />
  <sodipodi:namedview
     id="base"
     pagecolor="#ffffff"
     bordercolor="#666666"
     borderopacity="1.0"
     inkscape:pageopacity="0.0"
     inkscape:pageshadow="2"
     inkscape:zoom="1"
     inkscape:cx="350"
     inkscape:cy="634.28571"
     inkscape:document-units="px"
     inkscape:current-layer="layer1"
     inkscape:window-width="1600"
     inkscape:window-height="1182"
     inkscape:window-x="-4"
     inkscape:window-y="-4" />
  <metadata
     id="metadata7">
    <rdf:RDF>
      <cc:Work
         rdf:about="">
        <dc:format>image/svg+xml</dc:format>
        <dc:type
           rdf:resource="http://purl.org/dc/dcmitype/StillImage" />
      </cc:Work>
    </rdf:RDF>
  </metadata>
  <g
     inkscape:label="Ebene 1"
     inkscape:groupmode="layer"
     id="layer1">
    <path
       sodipodi:type="arc"
       style="fill:#2d37ab;fill-opacity:1;stroke:#000000;stroke-width:8;stroke-miterlimit:4;stroke-dasharray:none;stroke-opacity:0.88780488"
       id="path4433"
       sodipodi:cx="374"
       sodipodi:cy="677.86218"
       sodipodi:rx="288"
       sodipodi:ry="268.5"
       d="M 662 677.86218 A 288 268.5 0 1 1  86,677.86218 A 288 268.5 0 1 1  662 677.86218 z"
       transform="matrix(1.0725614,0,7.3467614e-3,1.234256,-16.618095,-387.29321)" />
    <rect
       style="fill:#ffffff;fill-opacity:1;stroke:#000000;stroke-width:5.43320036;stroke-miterlimit:4;stroke-dasharray:none;stroke-opacity:0.88780488"
       id="rect7348"
       width="429.60492"
       height="21.633982"
       x="425.89133"
       y="-375.45428"
       ry="10.816991"
       transform="matrix(0.911531,0.4112314,0.4923037,-0.8704235,0,0)"
       rx="0" />
    <rect
       style="fill:#ffffff;fill-opacity:1;stroke:#000000;stroke-width:5.57193422;stroke-miterlimit:4;stroke-dasharray:none;stroke-opacity:0.88780488"
       id="rect5406"
       width="426.36713"
       height="22.925697"
       x="-135.86455"
       y="680.2854"
       ry="11.462849"
       transform="matrix(0.8929945,-0.4500676,0.4516882,0.8921759,0,0)"
       rx="0" />
    <rect
       style="fill:#feff00;fill-opacity:1;stroke:#000000;stroke-width:8;stroke-miterlimit:4;stroke-dasharray:none;stroke-opacity:0.88780488"
       id="rect3460"
       width="614"
       height="340"
       x="81"
       y="64.362183" />
    <path
       sodipodi:type="star"
       style="fill:#ff1c00;fill-opacity:1;fill-rule:evenodd;stroke:#000000;stroke-width:19.23262787;stroke-linecap:butt;stroke-linejoin:miter;stroke-miterlimit:4;stroke-dasharray:none;stroke-opacity:0.88780488"
       id="path2477"
       sodipodi:sides="4"
       sodipodi:cx="-1257.1429"
       sodipodi:cy="-327.63782"
       sodipodi:r1="237.16005"
       sodipodi:r2="183.94765"
       sodipodi:arg1="1.5828439"
       sodipodi:arg2="2.3682421"
       inkscape:flatsided="true"
       inkscape:rounded="0"
       inkscape:randomized="0"
       d="M -1260.0001,-90.494979 L -1494.2858,-330.49495 L -1254.2858,-564.78066 L -1020.0001,-324.78068 L -1260.0001,-90.494979 z "
       transform="matrix(0.216789,0,0,0.3514277,493.39177,284.43171)" />
    <path
       sodipodi:type="star"
       style="fill:#ff1c00;fill-opacity:1;fill-rule:evenodd;stroke:#000000;stroke-width:19.23262787;stroke-linecap:butt;stroke-linejoin:miter;stroke-miterlimit:4;stroke-dasharray:none;stroke-opacity:0.88780488"
       id="path3448"
       sodipodi:sides="4"
       sodipodi:cx="-1257.1429"
       sodipodi:cy="-327.63782"
       sodipodi:r1="237.16005"
       sodipodi:r2="183.94765"
       sodipodi:arg1="1.5828439"
       sodipodi:arg2="2.3682421"
       inkscape:flatsided="true"
       inkscape:rounded="0"
       inkscape:randomized="0"
       d="M -1260.0001,-90.494979 L -1494.2858,-330.49495 L -1254.2858,-564.78066 L -1020.0001,-324.78068 L -1260.0001,-90.494979 z "
       transform="matrix(0.216789,0,0,0.3514277,605.53476,282.50319)" />
    <path
       sodipodi:type="star"
       style="fill:#ff1c00;fill-opacity:1;fill-rule:evenodd;stroke:#000000;stroke-width:19.23262787;stroke-linecap:butt;stroke-linejoin:miter;stroke-miterlimit:4;stroke-dasharray:none;stroke-opacity:0.88780488"
       id="path3450"
       sodipodi:sides="4"
       sodipodi:cx="-1257.1429"
       sodipodi:cy="-327.63782"
       sodipodi:r1="237.16005"
       sodipodi:r2="183.94765"
       sodipodi:arg1="1.5828439"
       sodipodi:arg2="2.3682421"
       inkscape:flatsided="true"
       inkscape:rounded="0"
       inkscape:randomized="0"
       d="M -1260.0001,-90.494979 L -1494.2858,-330.49495 L -1254.2858,-564.78066 L -1020.0001,-324.78068 L -1260.0001,-90.494979 z "
       transform="matrix(0.216789,0,0,0.3514277,713.53476,282.50319)" />
    <path
       sodipodi:type="star"
       style="fill:#ff1c00;fill-opacity:1;fill-rule:evenodd;stroke:#000000;stroke-width:19.23262787;stroke-linecap:butt;stroke-linejoin:miter;stroke-miterlimit:4;stroke-dasharray:none;stroke-opacity:0.88780488"
       id="path3452"
       sodipodi:sides="4"
       sodipodi:cx="-1257.1429"
       sodipodi:cy="-327.63782"
       sodipodi:r1="237.16005"
       sodipodi:r2="183.94765"
       sodipodi:arg1="1.5828439"
       sodipodi:arg2="2.3682421"
       inkscape:flatsided="true"
       inkscape:rounded="0"
       inkscape:randomized="0"
       d="M -1260.0001,-90.494979 L -1494.2858,-330.49495 L -1254.2858,-564.78066 L -1020.0001,-324.78068 L -1260.0001,-90.494979 z "
       transform="matrix(0.216789,0,0,0.3514277,822.53476,278.50319)" />
    <path
       sodipodi:type="star"
       style="fill:#ff1c00;fill-opacity:1;fill-rule:evenodd;stroke:#000000;stroke-width:19.23262787;stroke-linecap:butt;stroke-linejoin:miter;stroke-miterlimit:4;stroke-dasharray:none;stroke-opacity:0.88780488"
       id="path3454"
       sodipodi:sides="4"
       sodipodi:cx="-1257.1429"
       sodipodi:cy="-327.63782"
       sodipodi:r1="237.16005"
       sodipodi:r2="183.94765"
       sodipodi:arg1="1.5828439"
       sodipodi:arg2="2.3682421"
       inkscape:flatsided="true"
       inkscape:rounded="0"
       inkscape:randomized="0"
       d="M -1260.0001,-90.494979 L -1494.2858,-330.49495 L -1254.2858,-564.78066 L -1020.0001,-324.78068 L -1260.0001,-90.494979 z "
       transform="matrix(0.216789,0,0,0.3514277,550.53476,424.50319)"
       inkscape:transform-center-x="233"
       inkscape:transform-center-y="67" />
    <path
       sodipodi:type="star"
       style="fill:#ff1c00;fill-opacity:1;fill-rule:evenodd;stroke:#000000;stroke-width:19.23262787;stroke-linecap:butt;stroke-linejoin:miter;stroke-miterlimit:4;stroke-dasharray:none;stroke-opacity:0.88780488"
       id="path3456"
       sodipodi:sides="4"
       sodipodi:cx="-1257.1429"
       sodipodi:cy="-327.63782"
       sodipodi:r1="237.16005"
       sodipodi:r2="183.94765"
       sodipodi:arg1="1.5828439"
       sodipodi:arg2="2.3682421"
       inkscape:flatsided="true"
       inkscape:rounded="0"
       inkscape:randomized="0"
       d="M -1260.0001,-90.494979 L -1494.2858,-330.49495 L -1254.2858,-564.78066 L -1020.0001,-324.78068 L -1260.0001,-90.494979 z "
       transform="matrix(0.216789,0,0,0.3514277,659.53476,425.50319)"
       inkscape:transform-center-x="409"
       inkscape:transform-center-y="109" />
    <path
       sodipodi:type="star"
       style="fill:#ff1c00;fill-opacity:1;fill-rule:evenodd;stroke:#000000;stroke-width:19.23262787;stroke-linecap:butt;stroke-linejoin:miter;stroke-miterlimit:4;stroke-dasharray:none;stroke-opacity:0.88780488"
       id="path3458"
       sodipodi:sides="4"
       sodipodi:cx="-1257.1429"
       sodipodi:cy="-327.63782"
       sodipodi:r1="237.16005"
       sodipodi:r2="183.94765"
       sodipodi:arg1="1.5828439"
       sodipodi:arg2="2.3682421"
       inkscape:flatsided="true"
       inkscape:rounded="0"
       inkscape:randomized="0"
       d="M -1260.0001,-90.494979 L -1494.2858,-330.49495 L -1254.2858,-564.78066 L -1020.0001,-324.78068 L -1260.0001,-90.494979 z "
       transform="matrix(0.216789,0,0,0.3514277,769.53476,425.50319)"
       inkscape:transform-center-x="353"
       inkscape:transform-center-y="85.992833" />
    <path
       sodipodi:type="arc"
       style="fill:#ffffff;fill-opacity:1;stroke:#000000;stroke-width:6;stroke-miterlimit:4;stroke-dasharray:none;stroke-opacity:0.88780488"
       id="path8319"
       sodipodi:cx="130"
       sodipodi:cy="463.86218"
       sodipodi:rx="25"
       sodipodi:ry="23.5"
       d="M 155 463.86218 A 25 23.5 0 1 1  105,463.86218 A 25 23.5 0 1 1  155 463.86218 z"
       transform="translate(-5,-5)" />
    <path
       sodipodi:type="arc"
       style="fill:#ffffff;fill-opacity:1;stroke:#000000;stroke-width:6;stroke-miterlimit:4;stroke-dasharray:none;stroke-opacity:0.88780488"
       id="path9290"
       sodipodi:cx="130"
       sodipodi:cy="463.86218"
       sodipodi:rx="25"
       sodipodi:ry="23.5"
       d="M 155 463.86218 A 25 23.5 0 1 1  105,463.86218 A 25 23.5 0 1 1  155 463.86218 z"
       transform="translate(18,3.5)" />
    <path
       sodipodi:type="arc"
       style="fill:#ffffff;fill-opacity:1;stroke:#000000;stroke-width:6;stroke-miterlimit:4;stroke-dasharray:none;stroke-opacity:0.88780488"
       id="path9292"
       sodipodi:cx="130"
       sodipodi:cy="463.86218"
       sodipodi:rx="25"
       sodipodi:ry="23.5"
       d="M 155 463.86218 A 25 23.5 0 1 1  105,463.86218 A 25 23.5 0 1 1  155 463.86218 z"
       transform="translate(43,12.5)" />
    <path
       sodipodi:type="arc"
       style="fill:#ffffff;fill-opacity:1;stroke:#000000;stroke-width:6;stroke-miterlimit:4;stroke-dasharray:none;stroke-opacity:0.88780488"
       id="path9294"
       sodipodi:cx="130"
       sodipodi:cy="463.86218"
       sodipodi:rx="25"
       sodipodi:ry="23.5"
       d="M 155 463.86218 A 25 23.5 0 1 1  105,463.86218 A 25 23.5 0 1 1  155 463.86218 z"
       transform="translate(68,21.5)" />
    <path
       sodipodi:type="arc"
       style="fill:#ffffff;fill-opacity:1;stroke:#000000;stroke-width:6;stroke-miterlimit:4;stroke-dasharray:none;stroke-opacity:0.88780488"
       id="path9296"
       sodipodi:cx="130"
       sodipodi:cy="463.86218"
       sodipodi:rx="25"
       sodipodi:ry="23.5"
       d="M 155 463.86218 A 25 23.5 0 1 1  105,463.86218 A 25 23.5 0 1 1  155 463.86218 z"
       transform="translate(459,14.5)" />
    <path
       sodipodi:type="arc"
       style="fill:#ffffff;fill-opacity:1;stroke:#000000;stroke-width:6;stroke-miterlimit:4;stroke-dasharray:none;stroke-opacity:0.88780488"
       id="path9300"
       sodipodi:cx="130"
       sodipodi:cy="463.86218"
       sodipodi:rx="25"
       sodipodi:ry="23.5"
       d="M 155 463.86218 A 25 23.5 0 1 1  105,463.86218 A 25 23.5 0 1 1  155 463.86218 z"
       transform="translate(480,3.5)" />
    <path
       sodipodi:type="arc"
       style="fill:#ffffff;fill-opacity:1;stroke:#000000;stroke-width:6;stroke-miterlimit:4;stroke-dasharray:none;stroke-opacity:0.88780488"
       id="path9302"
       sodipodi:cx="130"
       sodipodi:cy="463.86218"
       sodipodi:rx="25"
       sodipodi:ry="23.5"
       d="M 155 463.86218 A 25 23.5 0 1 1  105,463.86218 A 25 23.5 0 1 1  155 463.86218 z"
       transform="translate(503,-11.5)" />
    <path
       sodipodi:type="arc"
       style="fill:#ffffff;fill-opacity:1;stroke:#000000;stroke-width:6;stroke-miterlimit:4;stroke-dasharray:none;stroke-opacity:0.88780488"
       id="path9298"
       sodipodi:cx="130"
       sodipodi:cy="463.86218"
       sodipodi:rx="25"
       sodipodi:ry="23.5"
       d="M 155 463.86218 A 25 23.5 0 1 1  105,463.86218 A 25 23.5 0 1 1  155 463.86218 z"
       transform="translate(528,-22.5)" />
  </g>
</svg>

<svg xmlns="http://www.w3.org/2000/svg" width="210mm" height="297mm"><path style="fill:#2d37ab;fill-opacity:1;stroke:#000;stroke-width:8;stroke-miterlimit:4;stroke-dasharray:none;stroke-opacity:.88780488" d="M662 677.862a288 268.5 0 1 1-576 0 288 268.5 0 1 1 576 0z" transform="matrix(1.07256 0 .00735 1.23426 -16.618 -387.293)"/><rect style="fill:#fff;fill-opacity:1;stroke:#000;stroke-width:5.43320036;stroke-miterlimit:4;stroke-dasharray:none;stroke-opacity:.88780488" width="429.605" height="21.634" x="425.891" y="-375.454" ry="10.817" transform="matrix(.91153 .41123 .4923 -.87042 0 0)" rx="0"/><rect style="fill:#fff;fill-opacity:1;stroke:#000;stroke-width:5.57193422;stroke-miterlimit:4;stroke-dasharray:none;stroke-opacity:.88780488" width="426.367" height="22.926" x="-135.865" y="680.285" ry="11.463" transform="rotate(-26.748) skewX(.104)" rx="0"/><path style="fill:#feff00;fill-opacity:1;stroke:#000;stroke-width:8;stroke-miterlimit:4;stroke-dasharray:none;stroke-opacity:.88780488" d="M81 64.362h614v340H81z"/><path style="fill:#ff1c00;fill-opacity:1;fill-rule:evenodd;stroke:#000;stroke-width:19.23262787;stroke-linecap:butt;stroke-linejoin:miter;stroke-miterlimit:4;stroke-dasharray:none;stroke-opacity:.88780488" d="m-1260-90.495-234.286-240 240-234.286 234.286 240-240 234.286z" transform="matrix(.21679 0 0 .35143 493.392 284.432)"/><path style="fill:#ff1c00;fill-opacity:1;fill-rule:evenodd;stroke:#000;stroke-width:19.23262787;stroke-linecap:butt;stroke-linejoin:miter;stroke-miterlimit:4;stroke-dasharray:none;stroke-opacity:.88780488" d="m-1260-90.495-234.286-240 240-234.286 234.286 240-240 234.286z" transform="matrix(.21679 0 0 .35143 605.535 282.503)"/><path style="fill:#ff1c00;fill-opacity:1;fill-rule:evenodd;stroke:#000;stroke-width:19.23262787;stroke-linecap:butt;stroke-linejoin:miter;stroke-miterlimit:4;stroke-dasharray:none;stroke-opacity:.88780488" d="m-1260-90.495-234.286-240 240-234.286 234.286 240-240 234.286z" transform="matrix(.21679 0 0 .35143 713.535 282.503)"/><path style="fill:#ff1c00;fill-opacity:1;fill-rule:evenodd;stroke:#000;stroke-width:19.23262787;stroke-linecap:butt;stroke-linejoin:miter;stroke-miterlimit:4;stroke-dasharray:none;stroke-opacity:.88780488" d="m-1260-90.495-234.286-240 240-234.286 234.286 240-240 234.286z" transform="matrix(.21679 0 0 .35143 822.535 278.503)"/><path style="fill:#ff1c00;fill-opacity:1;fill-rule:evenodd;stroke:#000;stroke-width:19.23262787;stroke-linecap:butt;stroke-linejoin:miter;stroke-miterlimit:4;stroke-dasharray:none;stroke-opacity:.88780488" d="m-1260-90.495-234.286-240 240-234.286 234.286 240-240 234.286z" transform="matrix(.21679 0 0 .35143 550.535 424.503)"/><path style="fill:#ff1c00;fill-opacity:1;fill-rule:evenodd;stroke:#000;stroke-width:19.23262787;stroke-linecap:butt;stroke-linejoin:miter;stroke-miterlimit:4;stroke-dasharray:none;stroke-opacity:.88780488" d="m-1260-90.495-234.286-240 240-234.286 234.286 240-240 234.286z" transform="matrix(.21679 0 0 .35143 659.535 425.503)"/><path style="fill:#ff1c00;fill-opacity:1;fill-rule:evenodd;stroke:#000;stroke-width:19.23262787;stroke-linecap:butt;stroke-linejoin:miter;stroke-miterlimit:4;stroke-dasharray:none;stroke-opacity:.88780488" d="m-1260-90.495-234.286-240 240-234.286 234.286 240-240 234.286z" transform="matrix(.21679 0 0 .35143 769.535 425.503)"/><path style="fill:#fff;fill-opacity:1;stroke:#000;stroke-width:6;stroke-miterlimit:4;stroke-dasharray:none;stroke-opacity:.88780488" d="M155 463.862a25 23.5 0 1 1-50 0 25 23.5 0 1 1 50 0z" transform="translate(-5 -5)"/><path style="fill:#fff;fill-opacity:1;stroke:#000;stroke-width:6;stroke-miterlimit:4;stroke-dasharray:none;stroke-opacity:.88780488" d="M155 463.862a25 23.5 0 1 1-50 0 25 23.5 0 1 1 50 0z" transform="translate(18 3.5)"/><path style="fill:#fff;fill-opacity:1;stroke:#000;stroke-width:6;stroke-miterlimit:4;stroke-dasharray:none;stroke-opacity:.88780488" d="M155 463.862a25 23.5 0 1 1-50 0 25 23.5 0 1 1 50 0z" transform="translate(43 12.5)"/><path style="fill:#fff;fill-opacity:1;stroke:#000;stroke-width:6;stroke-miterlimit:4;stroke-dasharray:none;stroke-opacity:.88780488" d="M155 463.862a25 23.5 0 1 1-50 0 25 23.5 0 1 1 50 0z" transform="translate(68 21.5)"/><path style="fill:#fff;fill-opacity:1;stroke:#000;stroke-width:6;stroke-miterlimit:4;stroke-dasharray:none;stroke-opacity:.88780488" d="M155 463.862a25 23.5 0 1 1-50 0 25 23.5 0 1 1 50 0z" transform="translate(459 14.5)"/><path style="fill:#fff;fill-opacity:1;stroke:#000;stroke-width:6;stroke-miterlimit:4;stroke-dasharray:none;stroke-opacity:.88780488" d="M155 463.862a25 23.5 0 1 1-50 0 25 23.5 0 1 1 50 0z" transform="translate(480 3.5)"/><path style="fill:#fff;fill-opacity:1;stroke:#000;stroke-width:6;stroke-miterlimit:4;stroke-dasharray:none;stroke-opacity:.88780488" d="M155 463.862a25 23.5 0 1 1-50 0 25 23.5 0 1 1 50 0z" transform="translate(503 -11.5)"/><path style="fill:#fff;fill-opacity:1;stroke:#000;stroke-width:6;stroke-miterlimit:4;stroke-dasharray:none;stroke-opacity:.88780488" d="M155 463.862a25 23.5 0 1 1-50 0 25 23.5 0 1 1 50 0z" transform="translate(528 -22.5)"/></svg>
